dist/svg/indicator-2.svg

<svg width="16" height="16" viewBox="0 0 16 16" fill="rgb(34, 34, 34)" xmlns="http://www.w3.org/2000/svg"><title>indicator-2</title><path d="M12.72 9.64999L11.96 9.38999C12.11 8.95999 12.19 8.48999 12.19 7.99999C12.19 7.50999 12.11 7.03999 11.96 6.60999L12.72 6.34999C12.9 6.86999 13 7.41999 13 7.99999C13 8.57999 12.9 9.13999 12.72 9.64999ZM9.64999 3.26999L9.38999 4.02999C8.95999 3.87999 8.48999 3.79999 7.99999 3.79999C7.50999 3.79999 7.03999 3.87999 6.60999 4.02999L6.34999 3.26999C6.86999 3.08999 7.41999 2.98999 7.99999 2.98999C8.57999 2.98999 9.13999 3.08999 9.64999 3.26999ZM3.26999 6.33999C3.08999 6.85999 2.98999 7.40999 2.98999 7.98999C2.98999 8.56999 3.08999 9.12999 3.26999 9.63999L4.02999 9.37999C3.87999 8.94999 3.79999 8.47999 3.79999 7.98999C3.79999 7.49999 3.87999 7.02999 4.02999 6.59999L3.26999 6.33999ZM6.33999 12.72L6.59999 11.96C7.02999 12.11 7.49999 12.19 7.98999 12.19C8.47999 12.19 8.94999 12.11 9.37999 11.96L9.63999 12.72C9.11999 12.9 8.56999 13 7.98999 13C7.40999 13 6.84999 12.9 6.33999 12.72Z" fill="rgb(34, 34, 34)" fill-opacity="1.00"/></svg>

<!-- Generated by Trend Micro Style Portal -->
<svg version="1.1" xmlns="http://www.w3.org/2000/svg" width="16" height="16" viewBox="0 0 16 16">
  <title>indicator-2</title>
  <path fill="rgb(34,34,34)" d="M12.72 9.65l-0.76-0.26c0.15-0.43 0.23-0.9 0.23-1.39s-0.080-0.96-0.23-1.39l0.76-0.26c0.18 0.52 0.28 1.070 0.28 1.65s-0.1 1.14-0.28 1.65zM9.65 3.27l-0.26 0.76c-0.43-0.15-0.9-0.23-1.39-0.23s-0.96 0.080-1.39 0.23l-0.26-0.76c0.52-0.18 1.070-0.28 1.65-0.28s1.14 0.1 1.65 0.28zM3.27 6.34c-0.18 0.52-0.28 1.070-0.28 1.65s0.1 1.14 0.28 1.65l0.76-0.26c-0.15-0.43-0.23-0.9-0.23-1.39s0.080-0.96 0.23-1.39l-0.76-0.26zM6.34 12.72l0.26-0.76c0.43 0.15 0.9 0.23 1.39 0.23s0.96-0.080 1.39-0.23l0.26 0.76c-0.52 0.18-1.070 0.28-1.65 0.28s-1.14-0.1-1.65-0.28z"></path>
</svg>
